build/category/TypographyOutline.svg

<svg xmlns="http://www.w3.org/2000/svg" fill="none" viewBox="0 0 24 24" focusable="false"><path d="M0 0H24V24H0z"/><path fill="#74767B" fill-rule="evenodd" d="M4.96909 20C4.49195 20 4.15463 19.5331 4.30452 19.0801L9.1354 4.48011C9.23023 4.19352 9.4981 4 9.79997 4L14.2003 4C14.5022 4 14.7701 4.19352 14.8649 4.48011L19.6958 19.0801C19.8457 19.5331 19.5083 20 19.0312 20L14.6091 20C14.2972 20 14.023 19.7937 13.9365 19.4941L13.2745 17.1997C13.2374 17.0713 13.1199 16.9829 12.9862 16.9829L10.7569 16.9829C10.6225 16.9829 10.5044 17.0723 10.4681 17.2018L9.8259 19.4892C9.7411 19.7913 9.46569 20 9.15196 20L4.96909 20ZM9.77164 15.6829C9.63719 15.6829 9.51915 15.7723 9.48281 15.9018L8.75867 18.4811C8.72232 18.6105 8.60429 18.7 8.46984 18.7L6.21487 18.7C6.01038 18.7 5.86582 18.4999 5.93005 18.3058L10.1653 5.50576C10.206 5.38294 10.3208 5.3 10.4502 5.3L13.5501 5.3C13.6795 5.3 13.7943 5.38294 13.8349 5.50576L18.0702 18.3058C18.1345 18.4999 17.9899 18.7 17.7854 18.7L15.2861 18.7C15.1524 18.7 15.0349 18.6116 14.9979 18.4832L14.2524 15.8997C14.2153 15.7713 14.0978 15.6829 13.9642 15.6829L9.77164 15.6829ZM11.5942 8.46137L10.259 13.1055C10.2039 13.2972 10.3479 13.4883 10.5474 13.4883L13.2177 13.4883C13.4172 13.4883 13.5611 13.2972 13.506 13.1055L12.1708 8.46138C12.0876 8.1719 11.6774 8.1719 11.5942 8.46137Z"/></svg>

<svg xmlns="http://www.w3.org/2000/svg" fill="none" viewBox="0 0 24 24" focusable="false"><path fill="#74767B" fill-rule="evenodd" d="M4.96 20c-.47 0-.81-.47-.66-.92l4.83-14.6c.1-.29.36-.48.66-.48h4.41c.3 0 .57.19.66.48l4.83 14.6c.15.45-.19.92-.66.92H14.6c-.31 0-.58-.21-.67-.51l-.66-2.3a.3.3 0 0 0-.29-.21h-2.23a.31.31 0 0 0-.29.22l-.64 2.28c-.08.31-.36.52-.67.52zm4.81-4.32c-.14 0-.26.09-.29.22l-.73 2.58c-.03.13-.15.22-.29.22H6.21c-.2 0-.35-.21-.28-.4l4.23-12.8c.04-.12.16-.21.29-.21h3.1c.12 0 .24.09.28.21l4.24 12.8c.06.19-.09.4-.29.4h-2.5a.31.31 0 0 1-.29-.22l-.74-2.59a.31.31 0 0 0-.29-.21zm.48-2.58 1.34-4.64c.08-.29.49-.29.58 0l1.33 4.64c.06.19-.09.38-.29.38h-2.67c-.2 0-.34-.19-.29-.38"/></svg>
